icons/cardiogram_e_fill.svg

<svg width="48" height="48" viewBox="0 0 48 48" fill="none" xmlns="http://www.w3.org/2000/svg">
<path fill-rule="evenodd" clip-rule="evenodd" d="M12 9C12 7.34315 13.3431 6 15 6H23C24.6569 6 26 7.34315 26 9H29C30.6569 9 32 10.3431 32 12V39C32 40.6569 30.6569 42 29 42H9C7.34315 42 6 40.6569 6 39V23H14.1713L15.6411 20.5339L17.4561 27.1952L21.4896 22H25.768C26.3203 22 26.768 21.5523 26.768 21C26.768 20.4477 26.3203 20 25.768 20H20.5104L18.3328 22.8048L16.3333 15.4661L13.035 21H6V12C6 10.3431 7.34315 9 9 9H12ZM15 8C14.4477 8 14 8.44772 14 9V11C14 11.5523 14.4477 12 15 12H23C23.5523 12 24 11.5523 24 11V9C24 8.44772 23.5523 8 23 8H15ZM11 30C11 29.4477 11.4477 29 12 29H26C26.5523 29 27 29.4477 27 30C27 30.5523 26.5523 31 26 31H12C11.4477 31 11 30.5523 11 30ZM12 34C11.4477 34 11 34.4477 11 35C11 35.5523 11.4477 36 12 36H26C26.5523 36 27 35.5523 27 35C27 34.4477 26.5523 34 26 34H12Z" fill="black"/>
<path d="M36 18C36 16.3431 37.3431 15 39 15C40.6569 15 42 16.3431 42 18V21H36V18Z" fill="black"/>
<path d="M39 42L36 38V23H42V38L39 42Z" fill="black"/>
</svg>

<svg
  xmlns="http://www.w3.org/2000/svg"
  width="24"
  height="24"
  viewBox="0 0 24 24"
  fill="none"
  stroke="currentColor"
  stroke-width="2"
  stroke-linecap="round"
  stroke-linejoin="round"
>
  <path
    fill-rule="evenodd"
    d="M12 9a3 3 0 0 1 3-3h8a3 3 0 0 1 3 3h3a3 3 0 0 1 3 3v27a3 3 0 0 1-3 3H9a3 3 0 0 1-3-3V23h8.171l1.47-2.466 1.815 6.661L21.49 22h4.278a1 1 0 1 0 0-2H20.51l-2.177 2.805-2-7.339L13.035 21H6v-9a3 3 0 0 1 3-3zm3-1a1 1 0 0 0-1 1v2a1 1 0 0 0 1 1h8a1 1 0 0 0 1-1V9a1 1 0 0 0-1-1zm-4 22a1 1 0 0 1 1-1h14a1 1 0 1 1 0 2H12a1 1 0 0 1-1-1m1 4a1 1 0 1 0 0 2h14a1 1 0 1 0 0-2z"
    clip-rule="evenodd"
  />
  <path d="M36 18a3 3 0 1 1 6 0v3h-6z" />
  <path d="m39 42-3-4V23h6v15z" />
</svg>
